icons/braces.svg

<svg xmlns="http://www.w3.org/2000/svg" viewBox="0 0 24 24" fill="currentColor">
  <path d="M3.75 7c0-1.78579 1.46421-3.25 3.25-3.25.41421 0 .75-.33579.75-.75s-.33579-.75-.75-.75C4.38579 2.25 2.25 4.38579 2.25 7v10c0 2.6142 2.13579 4.75 4.75 4.75.41421 0 .75-.3358.75-.75s-.33579-.75-.75-.75c-1.78579 0-3.25-1.4642-3.25-3.25V7ZM17 2.25c-.4142 0-.75.33579-.75.75s.3358.75.75.75c1.7858 0 3.25 1.46421 3.25 3.25v10c0 1.7858-1.4642 3.25-3.25 3.25-.4142 0-.75.3358-.75.75s.3358.75.75.75c2.6142 0 4.75-2.1358 4.75-4.75V7c0-2.61421-2.1358-4.75-4.75-4.75Z"/>
</svg>

<svg width="24" height="24" viewBox="0 0 24 24" fill="none" xmlns="http://www.w3.org/2000/svg">
<path fill-rule="evenodd" clip-rule="evenodd" d="M3.75 7C3.75 5.21421 5.21421 3.75 7 3.75C7.41421 3.75 7.75 3.41421 7.75 3C7.75 2.58579 7.41421 2.25 7 2.25C4.38579 2.25 2.25 4.38579 2.25 7V17C2.25 19.6142 4.38579 21.75 7 21.75C7.41421 21.75 7.75 21.4142 7.75 21C7.75 20.5858 7.41421 20.25 7 20.25C5.21421 20.25 3.75 18.7858 3.75 17V7ZM17 2.25C16.5858 2.25 16.25 2.58579 16.25 3C16.25 3.41421 16.5858 3.75 17 3.75C18.7858 3.75 20.25 5.21421 20.25 7V17C20.25 18.7858 18.7858 20.25 17 20.25C16.5858 20.25 16.25 20.5858 16.25 21C16.25 21.4142 16.5858 21.75 17 21.75C19.6142 21.75 21.75 19.6142 21.75 17V7C21.75 4.38579 19.6142 2.25 17 2.25Z" fill="black"/>
</svg>
